MonoIcons/scalable/status/audio-volume-muted-symbolic.svg

<?xml version="1.0" encoding="UTF-8"?>
<svg height="16px" viewBox="0 0 16 16" width="16px" xmlns="http://www.w3.org/2000/svg">
    <g fill="#2e3436">
        <path d="m 7 1.007812 c -0.296875 -0.003906 -0.578125 0.125 -0.769531 0.351563 l -3.230469 3.640625 h -1 c -1.09375 0 -2 0.84375 -2 2 v 2 c 0 1.089844 0.910156 2 2 2 h 1 l 3.230469 3.640625 c 0.210937 0.253906 0.492187 0.363281 0.769531 0.359375 z m 0 0"/>
        <path d="m 10 5 c -0.265625 0 -0.519531 0.105469 -0.707031 0.292969 c -0.390625 0.390625 -0.390625 1.023437 0 1.414062 l 1.292969 1.292969 l -1.292969 1.292969 c -0.390625 0.390625 -0.390625 1.023437 0 1.414062 s 1.023437 0.390625 1.414062 0 l 1.292969 -1.292969 l 1.292969 1.292969 c 0.390625 0.390625 1.023437 0.390625 1.414062 0 s 0.390625 -1.023437 0 -1.414062 l -1.292969 -1.292969 l 1.292969 -1.292969 c 0.390625 -0.390625 0.390625 -1.023437 0 -1.414062 c -0.1875 -0.1875 -0.441406 -0.292969 -0.707031 -0.292969 s -0.519531 0.105469 -0.707031 0.292969 l -1.292969 1.292969 l -1.292969 -1.292969 c -0.1875 -0.1875 -0.441406 -0.292969 -0.707031 -0.292969 z m 0 0"/>
    </g>
</svg>

<svg width="16" height="16" viewBox="0 0 16 16" fill="none" xmlns="http://www.w3.org/2000/svg">
<path d="M7.00001 1.00765C6.70313 1.00375 6.42188 1.13265 6.23048 1.35922L3 4.99985H2C0.906251 4.99985 0 5.8436 0 6.99985V8.99985C0 10.0897 0.910157 10.9999 2 10.9999H3L6.23048 14.6405C6.44141 14.8944 6.72266 15.0038 7.00001 14.9999V1.00765Z" fill="#2E3436"/>
<path d="M10 5C9.73438 5 9.48047 5.10547 9.29297 5.29297C8.90234 5.68359 8.90234 6.31641 9.29297 6.70703L10.5859 8L9.29297 9.29297C8.90234 9.6836 8.90234 10.3164 9.29297 10.707C9.68359 11.0977 10.3164 11.0977 10.707 10.707L12 9.41407L13.293 10.707C13.6836 11.0977 14.3164 11.0977 14.707 10.707C15.0977 10.3164 15.0977 9.6836 14.707 9.29297L13.4141 8L14.707 6.70703C15.0977 6.31641 15.0977 5.68359 14.707 5.29297C14.5195 5.10547 14.2656 5 14 5C13.7344 5 13.4805 5.10547 13.293 5.29297L12 6.58594L10.707 5.29297C10.5195 5.10547 10.2656 5 10 5V5Z" fill="#2E3436"/>
</svg>
